public/assets/img/facebook-white.svg

<svg width="20" height="20" viewBox="0 0 20 20" fill="none" xmlns="http://www.w3.org/2000/svg">
<path fill-rule="evenodd" clip-rule="evenodd" d="M0 10C0 4.47715 4.47715 0 10 0C15.5228 0 20 4.47715 20 10C20 15.5228 15.5228 20 10 20C4.47715 20 0 15.5228 0 10ZM11.0423 15.8798V10.4393H12.5441L12.7432 8.56442H11.0423L11.0449 7.62604C11.0449 7.13706 11.0913 6.87505 11.7937 6.87505H12.7325V5H11.2305C9.42631 5 8.79128 5.9095 8.79128 7.43899V8.56463H7.66667V10.4395H8.79128V15.8798H11.0423Z" fill="white"/>
</svg>

<svg width="20" height="20" fill="none" xmlns="http://www.w3.org/2000/svg"><path fill-rule="evenodd" clip-rule="evenodd" d="M0 10C0 4.477 4.477 0 10 0s10 4.477 10 10-4.477 10-10 10S0 15.523 0 10Zm11.042 5.88v-5.44h1.502l.2-1.876h-1.702l.003-.938c0-.489.046-.751.749-.751h.938V5H11.23c-1.804 0-2.439.91-2.439 2.439v1.126H7.667v1.875H8.79v5.44h2.251Z" fill="#fff"/></svg>
